X: 428
T: Buffalo Gals
B: good tune book
B: tunes
M:C|
L:1/8
R: reel
Q: 1/4=100
K:G
V:1 
|: "G"G2G2 B2dd | e2dd B4 | "D7"d2cc A4 | "G" e2dd B4 \
|  "G"G2G2 B2dd | e2dd B4 | "D7"d2dd cBA2 | "G"G8 :|
|: "G"g2f2 e2d2 | e2dd B4 | "D7"d2cc A4 | "G" e2dd B4 \
|  "G"g2f2 e2d2 | e2dd B4 | "D7"d2dd cBA2 | "G"G8 :|
W: Buffalo Gals, won’t you come out tonight,
W: Come out tonight, come out tonight.
W: Buffalo Gals, won’t you come out tonight
W: And dance by the light of the moon.
W: 
W: As I was walking down the street,
W: Down the street, down the street,
W: A pretty little gal I chanced to meet,
W: Oh, she was fair to see.
W: 
W: Buffalo Gals, won’t you come out tonight,
W: Come out tonight, come out tonight.
W: Buffalo Gals, won’t you come out tonight
W: And dance by the light of the moon.
W: 
W: I stopped her and we had a talk,
W: Had a talk, had a talk,
W: Her feet took up the whole sidewalk
W: And left no room for me.
W: 
W: Buffalo Gals, won’t you come out tonight,
W: Come out tonight, come out tonight.
W: Buffalo Gals, won’t you come out tonight
W: And dance by the light of the moon.
W: 
W: I asked her if she’d have a dance,
W: Have a dance, have a dance,
W: I thought that I might have a chance
W: To shake a foot with her.
W: 
W: Buffalo Gals, won’t you come out tonight,
W: Come out tonight, come out tonight.
W: Buffalo Gals, won’t you come out tonight
W: And dance by the light of the moon.
W: 
W: I danced with a gal with a hole in her stockin’,
W: And her heel kept a-knockin’, and her toes kept a-rockin’
W: I danced with a gal with a hole in her stockin’
W: And we danced by the light of the moon.
W: 
W: Buffalo Gals, won’t you come out tonight,
W: Come out tonight, come out tonight.
W: Buffalo Gals, won’t you come out tonight
W: And dance by the light of the moon.
% abcbook-tune_id 6298c2452eaaba574bfeddaa
% abcbook-tune_composer_id 
% abcbook-link-0 https://www.youtube.com/watch?v=8XPQK6bTkQc
% abcbook-link-title-0 Buffalo Gals - Kate O&#39;Connor and Maggie O&#39;Connor
% abcbook-boost 14
% abcbook-difficulty 0
% abcbook-tags jims roots and blues,good tune book
% abcbook-tablature 
% abcbook-transpose 
% abcbook-tuning 
% abcbook-lastupdated 1675552532702
% abcbook-soundfonts 
% abcbook-repeats 1
% Rhythm Reel
% Titles One title
% Transcriptions Only 1 transcription
% Movement Has some stepwise movement
% Mode major
% Key G
% Time_signature 2/2
% Has_accompaniment_chords Has chords

